X:48
T: Wiedersehen an der Bahre
N: Q0056D
O: Mitteleuropa, Schweiz, Aargau
R: Ballade, Abschied, Enttaeuschung, Tod, Selbstmord
M: 3/4
L: 1/16
K: G
D2 | D3BB4A2G2 | G2A2D4z2
D2 | D3cc4B2A2 | A4G4z2
GF | E3FG4F2E2 | D2G2B4z2
B2 | A2B2d4c2A2 | A4B4z2
GF | E3FG4F2E2 | D2G2B4z2
B2 | A2B2d4c2A2 | A4G4z2

@@@ Tune index: 924
